images/svg/infographic-restaurant.svg

<svg width="90" height="90" viewBox="0 0 90 90" fill="none" xmlns="http://www.w3.org/2000/svg">
<g clip-path="url(#clip0_31_454)">
<path fill-rule="evenodd" clip-rule="evenodd" d="M40.0317 27.3944C40.1438 29.6977 39.8992 31.9092 39.2673 34.0188C37.81 37.8813 34.3653 40.8674 30.0951 41.9069V34.9768V30.6658V6.20654H23.4605V28.067V34.9768V41.9069C19.1903 40.8674 15.7456 37.8813 14.2883 34.0188C13.687 31.7563 13.473 29.5448 13.5239 27.3944V6.20654H6.89954V29.8811C6.89954 39.2979 14.0743 47.1453 23.4605 48.6638V83.9973H30.0951V48.6638C39.4813 47.1453 46.6561 39.2979 46.6561 29.8811V6.20654H40.0317V27.3944Z" fill="url(#paint0_linear_31_454)"/>
<path fill-rule="evenodd" clip-rule="evenodd" d="M79.2787 6.58359C65.2758 8.73397 54.9315 20.7904 54.9315 34.9564V63.4922H76.4659V83.9973H83.1005V34.7016V6.00269L79.2787 6.58359ZM76.4659 56.8678H61.5661V34.9564C61.5661 34.9258 61.5661 34.885 61.5661 34.8545C61.5661 25.4478 67.5586 17.0807 76.4761 14.0641L76.4659 35.7207V56.8678Z" fill="url(#paint1_linear_31_454)"/>
</g>
<defs>
<linearGradient id="paint0_linear_31_454" x1="51.0995" y1="102.046" x2="17.8553" y2="-16.4081" gradientUnits="userSpaceOnUse">
<stop stop-color="#0E42B8"/>
<stop offset="0.568627" stop-color="#1B8CF6"/>
<stop offset="1" stop-color="#65C9FB"/>
</linearGradient>
<linearGradient id="paint1_linear_31_454" x1="74.2747" y1="106.765" x2="56.6437" y2="12.5048" gradientUnits="userSpaceOnUse">
<stop stop-color="#28B1A1"/>
<stop offset="0.6" stop-color="#57DA98"/>
<stop offset="1" stop-color="#9AE974"/>
</linearGradient>
<clipPath id="clip0_31_454">
<rect width="90" height="90" fill="white"/>
</clipPath>
</defs>
</svg>

<svg width="90" height="90" fill="none" xmlns="http://www.w3.org/2000/svg"><g clip-path="url(#a)" fill-rule="evenodd" clip-rule="evenodd"><path d="M40.032 27.394c.112 2.304-.133 4.515-.765 6.625-1.457 3.862-4.902 6.848-9.172 7.888V6.206h-6.634v35.701c-4.27-1.04-7.715-4.026-9.173-7.888a23.45 23.45 0 0 1-.764-6.625V6.207H6.9V29.88c0 9.417 7.174 17.264 16.56 18.783v35.333h6.635V48.664c9.386-1.519 16.561-9.366 16.561-18.783V6.207h-6.624v21.187z" fill="url(#b)"/><path d="M79.279 6.584C65.276 8.734 54.932 20.79 54.932 34.956v28.536h21.534v20.505H83.1V6.002l-3.822.582zm-2.813 50.284h-14.9V34.854a21.945 21.945 0 0 1 14.91-20.79l-.01 21.657v21.147z" fill="url(#c)"/></g><defs><linearGradient id="b" x1="51.099" y1="102.046" x2="17.855" y2="-16.408" gradientUnits="userSpaceOnUse"><stop stop-color="#0E42B8"/><stop offset=".569" stop-color="#1B8CF6"/><stop offset="1" stop-color="#65C9FB"/></linearGradient><linearGradient id="c" x1="74.275" y1="106.765" x2="56.644" y2="12.505" gradientUnits="userSpaceOnUse"><stop stop-color="#28B1A1"/><stop offset=".6" stop-color="#57DA98"/><stop offset="1" stop-color="#9AE974"/></linearGradient><clipPath id="a"><path fill="#fff" d="M0 0h90v90H0z"/></clipPath></defs></svg>
